icons/editor/folder-import.svg

<svg width="32" height="32" viewBox="0 0 32 32" fill="none" xmlns="http://www.w3.org/2000/svg">
<path fill-rule="evenodd" clip-rule="evenodd" d="M4 4.00012C2.89542 4.00012 1.99999 4.89556 2 6.00014L2.00014 26C2.00015 27.1046 2.89557 28 4.00014 28H13.0003V26H4.00014L4 6.00012H10.586L14.0002 9.41436C14.3753 9.78944 14.884 10.0002 15.4145 10.0002H28.0001V19H30.0001V10.0002C30.0001 8.89558 29.1047 8.00015 28.0001 8.00015H15.4145L12.0002 4.58591C11.6252 4.21084 11.1165 4.00012 10.586 4.00012H4ZM20.4144 23.9998L23.7076 20.7066L22.2934 19.2924L17.2931 24.2926L16.586 24.9997L17.2931 25.7069L22.2934 30.7071L23.7076 29.2929L20.4145 25.9998H31.0005V23.9998H20.4144Z" fill="black"/>
</svg>

<svg width="32" height="32" viewBox="0 0 32 32" xmlns="http://www.w3.org/2000/svg">
    <path fill-rule="evenodd" d="M4 4a2 2 0 00-2 2v20a2 2 0 002 2h9v-2H4V6h6.586L14 9.414a2 2 0 001.415.586H28v9h2v-9a2 2 0 00-2-2H15.415L12 4.586A2 2 0 0010.586 4H4zm16.414 20l3.294-3.293-1.415-1.415-5 5-.707.708.707.707 5 5 1.415-1.414L20.415 26H31v-2H20.414z"/>
</svg>
